X: 40691
T: Torn Jacket, The
R: reel
M: 4/4
K: Dmajor
~F3A dfed|cAAB cde z|~F3A dfed|cAGE ED DE|
~F3A d z ed|cAAB cdec|d z de fded|cAGE ED D2|
~f3A dfed|cAAB cdeA|~F3A dfed|cAGE ED D z|
~f3A dfed|cAAB cdec|d z de fded|cAGE ED D2|
|:FAdf ~a3f|~g3 z gfed|c~A3 (3Bcdef|gfed cAGE|
FAdf ~a3f|~g3 z gfef|~g2 ba gfed|cAGE ED D2:|

